brandFactory_export/2.Regular/Lanzar_2Regular.svg

<?xml version="1.0" encoding="UTF-8"?>
<svg width="24px" height="24px" viewBox="0 0 24 24" version="1.1" xmlns="http://www.w3.org/2000/svg" xmlns:xlink="http://www.w3.org/1999/xlink">
    <title>2.Regular/Lanzar_2Regular</title>
    <g id="Symbols" stroke="none" stroke-width="1" fill="none" fill-rule="evenodd">
        <g id="2.Regular/Lanzar_2Regular" fill="#5CB615" fill-rule="nonzero">
            <path d="M21.9596639,1.34453782 C22.1445378,1.34453782 22.2957983,1.49579832 22.2957983,1.68067227 L22.2957983,10.7831933 C22.2957983,10.9680672 22.1445378,11.1193277 21.9596639,11.1193277 L21.9563025,11.1193277 C21.8689076,11.1193277 21.7815126,11.0823529 21.7210084,11.0184874 L20.1714286,9.46890756 L19.9260504,9.22352941 C19.8420168,9.29747899 19.7579832,9.37142857 19.6806723,9.45546218 L11.502521,17.6369748 C11.3714286,17.7680672 11.1596639,17.7680672 11.0285714,17.6369748 L5.98991597,12.5983193 C5.85882353,12.4672269 5.85882353,12.2554622 5.98991597,12.1243697 L14.1680672,3.94621849 C14.2991597,3.81512605 14.2991597,3.60336134 14.1680672,3.47226891 L12.6184874,1.92268908 C12.487395,1.79159664 12.487395,1.57983193 12.6184874,1.4487395 C12.6823529,1.38487395 12.7663866,1.3512605 12.8571429,1.3512605 L21.9596639,1.3512605 M21.9596639,0 L12.8571429,0 C11.9294118,0 11.1764706,0.752941176 11.1764706,1.68067227 C11.1764706,2.12773109 11.3546218,2.55462185 11.6672269,2.87058824 L12.5042017,3.70756303 L5.03865546,11.1731092 C4.38319328,11.8285714 4.38319328,12.8941176 5.03865546,13.5495798 L10.0739496,18.5882353 C10.7294118,19.2436975 11.794958,19.2436975 12.4504202,18.5882353 L19.9159664,11.1193277 L20.7663866,11.9731092 C21.0789916,12.2890756 21.5058824,12.4672269 21.9529412,12.4672269 C22.8806723,12.4672269 23.6336134,11.7142857 23.6369748,10.7865546 L23.6369748,1.68067227 C23.6369748,0.752941176 22.887395,0 21.9596639,0 Z M0.672268908,23.6268908 C0.302521008,23.6268908 0,23.3277311 0,22.9546218 C0,22.7764706 0.0705882353,22.605042 0.198319328,22.4773109 L5.75798319,16.9176471 C6.01680672,16.6521008 6.44033613,16.6420168 6.7092437,16.9008403 C6.97478992,17.1596639 6.98487395,17.5831933 6.72605042,17.8521008 L6.7092437,17.8689076 L1.14621849,23.4285714 C1.02184874,23.5563025 0.850420168,23.6268908 0.672268908,23.6268908 Z M6.71596639,23.6302521 C6.34621849,23.6302521 6.04369748,23.3277311 6.04369748,22.9579832 C6.04369748,22.7798319 6.11428571,22.6084034 6.24201681,22.4840336 C7.49243697,21.2336134 8.96806723,19.6907563 8.98487395,19.6739496 C9.23697479,19.4016807 9.66386555,19.3882353 9.93613445,19.6403361 C10.2084034,19.892437 10.2218487,20.3193277 9.9697479,20.5915966 C9.96638655,20.594958 9.96302521,20.5983193 9.95966387,20.605042 C9.94621849,20.6218487 8.45714286,22.1747899 7.19663866,23.4352941 C7.06554622,23.5596639 6.89411765,23.6302521 6.71596639,23.6302521 L6.71596639,23.6302521 Z M0.732773109,17.6470588 C0.36302521,17.6470588 0.0605042017,17.3445378 0.0605042017,16.9747899 C0.0605042017,16.7966387 0.131092437,16.6252101 0.255462185,16.5008403 C1.50588235,15.2504202 2.98151261,13.707563 2.99831933,13.6907563 C3.25042017,13.4184874 3.67731092,13.405042 3.94957983,13.6571429 C4.22184874,13.9092437 4.23529412,14.3361345 3.98319328,14.6084034 C3.97983193,14.6117647 3.97647059,14.6151261 3.97310924,14.6218487 C3.95966387,14.6386555 2.47058824,16.1915966 1.21008403,17.4521008 C1.08235294,17.5764706 0.91092437,17.6470588 0.732773109,17.6470588 L0.732773109,17.6470588 Z" id="Lanzar_2Regular"></path>
        </g>
    </g>
</svg>

<svg width="24" height="24" viewBox="0 0 24 24" xmlns="http://www.w3.org/2000/svg"><path d="M21.96 1.345c.185 0 .336.15.336.336v9.102a.337.337 0 01-.336.336h-.004a.328.328 0 01-.235-.1l-1.55-1.55-.245-.245a3.183 3.183 0 00-.245.231l-8.178 8.182a.335.335 0 01-.474 0l-5.04-5.039a.335.335 0 010-.474l8.18-8.178a.335.335 0 000-.474l-1.55-1.55a.335.335 0 01.238-.57h9.103m0-1.352h-9.103a1.681 1.681 0 00-1.19 2.87l.837.838-7.465 7.465a1.682 1.682 0 000 2.377l5.035 5.038a1.682 1.682 0 002.376 0l7.466-7.469.85.854c.313.316.74.494 1.187.494.928 0 1.68-.753 1.684-1.68V1.68C23.637.753 22.887 0 21.96 0zM.672 23.627a.672.672 0 01-.474-1.15l5.56-5.56a.674.674 0 01.968.935l-.017.017-5.563 5.56a.66.66 0 01-.474.198zm6.044.003a.674.674 0 01-.672-.672c0-.178.07-.35.198-.474 1.25-1.25 2.726-2.793 2.743-2.81a.674.674 0 01.985.918 196.804 196.804 0 01-2.773 2.844.7.7 0 01-.481.194zM.733 17.647a.674.674 0 01-.478-1.146c1.25-1.25 2.727-2.793 2.743-2.81a.674.674 0 11.975.93c-.013.018-1.502 1.57-2.763 2.831a.685.685 0 01-.477.195z" fill="#5CB615" fill-rule="nonzero"/></svg>
